app/style/icons/restorewallet.svg

<svg viewBox="5411 317 62 62" xmlns="http://www.w3.org/2000/svg"><g fill="none"><path d="m220.2 199.5c.055.041.1.083.152.124a1.47 1.47 0 0 1 -.152-.124z" transform="translate(5221.139 144.987)"/><path d="m218.7 198.4a.191.191 0 0 0 .055.041c-.014-.027-.027-.041-.055-.041z" transform="translate(5222.432 145.935)"/><path d="m254.1 245.1a.672.672 0 0 1 .041.1.672.672 0 0 1 -.041-.1z" transform="translate(5191.909 105.669)"/><path d="m225.981 206.483a15.466 15.466 0 0 0 -4.381-5.883 15.825 15.825 0 0 1 4.381 5.883z" transform="translate(5219.932 144.038)"/><path d="m93.569 224.7-8.969 8.969 2.425 2.425-2.425-2.425z" transform="translate(5338.056 123.259)"/></g><path d="m67.212 184.755a.672.672 0 0 1 -.041-.1c-.028-.083-.069-.165-.1-.248a15.465 15.465 0 0 0 -4.381-5.883l-.041-.041c-.055-.041-.1-.083-.152-.124a.966.966 0 0 0 -.138-.11c-.014-.014-.028 0-.055-.014a15.446 15.446 0 0 0 -9.504-3.235h-.014a15.472 15.472 0 1 0 12.924 24.015c.014-.014.028-.041.041-.055a15.406 15.406 0 0 0 2.549-8.515 15.952 15.952 0 0 0 -1.088-5.69z" fill="#2ed8a3" transform="translate(5378.839 166.111)"/><g transform="translate(5411 317)"><path d="m66.678 56.889h37.172v-2.769a4.11 4.11 0 0 0 -4.105-4.12h-33.067a4.157 4.157 0 0 0 -4.078 3.444 4.179 4.179 0 0 0 4.078 3.445z" fill="#2ed8a3" transform="translate(-53.975 -43.111)"/><path d="m110.136 108.673v-4.436a8.611 8.611 0 0 1 0-17.222v-4.45a4.11 4.11 0 0 0 -4.106-4.12h-39.955a4.128 4.128 0 0 1 -4.051-3.445.586.586 0 0 0 -.028.152c0 .014-.014.028-.014.041 0 .041-.014.083-.014.124a.175.175 0 0 1 -.014.083c0 .028-.028.069-.028.1 0 .069-.028.124-.028.193v18.82a15.563 15.563 0 0 1 12.083-5.732h.028a15.416 15.416 0 0 1 9.507 3.238c.014.014.028.014.055.028a1.2 1.2 0 0 1 .138.11c.055.041.1.083.152.124l.041.041a15.607 15.607 0 0 1 4.382 5.878 1.839 1.839 0 0 1 .1.248.671.671 0 0 1 .041.1 15.494 15.494 0 0 1 -1.46 14.219h19.082a4.093 4.093 0 0 0 4.089-4.094z" fill="#96ebd1" transform="translate(-53.372 -64.667)"/><path d="m349.5 170.811a8.659 8.659 0 0 0 8.611 8.611v-17.222a8.659 8.659 0 0 0 -8.611 8.611z" fill="#2ed8a3" transform="translate(-301.347 -139.852)"/><path d="m0 0h62v62h-62z" fill="none"/></g><path d="m86.787 233.969-2.687.951a9.566 9.566 0 0 0 1.185 2.26 9.322 9.322 0 1 0 2.149-13.006l-.179-2.273-2.852.262.597 6.529 6.531.592.262-2.852-2.273-.207a6.479 6.479 0 1 1 -1.226 10.113 6.211 6.211 0 0 1 -1.507-2.369z" fill="#96ebd1" transform="translate(5338.487 125.673)"/></svg>

<svg xmlns="http://www.w3.org/2000/svg" viewBox="5411 317 62 62"><defs><style>.a{fill:none;}.b{fill:#2ed8a3;}.c{fill:#96ebd1;}</style></defs><g transform="translate(4786)"><path class="a" d="M220.2,199.5c.055.041.1.083.152.124A1.47,1.47,0,0,1,220.2,199.5Z" transform="translate(435.139 144.987)"/><path class="a" d="M218.7,198.4a.191.191,0,0,0,.055.041C218.741,198.414,218.728,198.4,218.7,198.4Z" transform="translate(436.432 145.935)"/><path class="a" d="M254.1,245.1a.672.672,0,0,1,.041.1A.672.672,0,0,1,254.1,245.1Z" transform="translate(405.909 105.669)"/><path class="a" d="M225.981,206.483A15.466,15.466,0,0,0,221.6,200.6,15.825,15.825,0,0,1,225.981,206.483Z" transform="translate(433.932 144.038)"/><path class="a" d="M93.569,224.7,84.6,233.669l2.425,2.425L84.6,233.669Z" transform="translate(552.056 123.259)"/><path class="b" d="M67.212,184.755a.672.672,0,0,1-.041-.1c-.028-.083-.069-.165-.1-.248a15.465,15.465,0,0,0-4.381-5.883l-.041-.041c-.055-.041-.1-.083-.152-.124a.966.966,0,0,0-.138-.11c-.014-.014-.028,0-.055-.014A15.446,15.446,0,0,0,52.8,175h-.014A15.472,15.472,0,1,0,65.71,199.015c.014-.014.028-.041.041-.055a15.406,15.406,0,0,0,2.549-8.515A15.952,15.952,0,0,0,67.212,184.755Z" transform="translate(592.839 166.111)"/><g transform="translate(625 317)"><path class="b" d="M66.678,56.889h37.172V54.12A4.11,4.11,0,0,0,99.745,50H66.678A4.157,4.157,0,0,0,62.6,53.444,4.179,4.179,0,0,0,66.678,56.889Z" transform="translate(-53.975 -43.111)"/><path class="c" d="M110.136,108.673v-4.436a8.611,8.611,0,0,1,0-17.222v-4.45a4.11,4.11,0,0,0-4.106-4.12H66.075A4.128,4.128,0,0,1,62.024,75h0a.586.586,0,0,0-.028.152c0,.014-.014.028-.014.041,0,.041-.014.083-.014.124a.175.175,0,0,1-.014.083c0,.028-.028.069-.028.1,0,.069-.028.124-.028.193v18.82a15.563,15.563,0,0,1,12.083-5.732h.028a15.416,15.416,0,0,1,9.507,3.238c.014.014.028.014.055.028a1.2,1.2,0,0,1,.138.11c.055.041.1.083.152.124l.041.041A15.607,15.607,0,0,1,88.284,98.2a1.839,1.839,0,0,1,.1.248.671.671,0,0,1,.041.1,15.494,15.494,0,0,1-1.46,14.219h19.082A4.093,4.093,0,0,0,110.136,108.673Z" transform="translate(-53.372 -64.667)"/><path class="b" d="M349.5,170.811a8.659,8.659,0,0,0,8.611,8.611V162.2A8.659,8.659,0,0,0,349.5,170.811Z" transform="translate(-301.347 -139.852)"/><rect class="a" width="62" height="62"/></g><path class="c" d="M86.787,233.969l-2.687.951a9.566,9.566,0,0,0,1.185,2.26,9.322,9.322,0,1,0,2.149-13.006l-.179-2.273-2.852.262L85,228.692l6.531.592.262-2.852-2.273-.207a6.479,6.479,0,1,1-1.226,10.113A6.211,6.211,0,0,1,86.787,233.969Z" transform="translate(552.487 125.673)"/></g></svg>
